icons/14x14_ticket_outline.svg

<svg xmlns="http://www.w3.org/2000/svg" width="14" height="14" viewBox="0 0 14 14">
  <path d="M8.51899001,2.7075371 L8.51515818,2.71136827 L8.51899001,2.7075371 Z M10.9999166,6.19235145 L10.9998894,6.18568358 L10.9999166,6.19235145 Z M10.986962,3.01390331 L8.22449403,3.00198164 L3.28336978,7.94224265 L6.0579431,10.716816 L10.9982254,5.77740593 L10.986962,3.01390331 Z M12.9829,2.0132 L12.9999,6.1842 C13.0019,6.4512 12.8959,6.7072 12.7079,6.8962 L6.9839,12.6192 C6.4729,13.1302 5.6399,13.1272 5.1239,12.6112 L1.3889,8.8762 C0.8729,8.3602 0.8699,7.5272 1.3809,7.0162 L7.1049,1.2932 C7.2929,1.1042 7.5499,0.9992 7.8159,1.0002 L11.9869,1.0182 C12.5359,1.0202 12.9799,1.4642 12.9829,2.0132 Z"/>
</svg>

<svg width="14" height="14" fill="none" xmlns="http://www.w3.org/2000/svg"><path d="m8.519 2.708-.004.003.004-.003Zm2.48 3.484v-.006.006Zm-.012-3.178-2.763-.012-4.94 4.94 2.774 2.775 4.94-4.94-.011-2.763Zm1.996-1L13 6.183a1 1 0 0 1-.292.712L6.984 12.62a1.315 1.315 0 0 1-1.86-.008L1.389 8.876a1.315 1.315 0 0 1-.008-1.86l5.724-5.723A.998.998 0 0 1 7.815 1l4.172.018a1 1 0 0 1 .996.995Z" fill="#000"/></svg>
